!!!COM: Palestrina, Giovanni Perluigi da
!!!OPR: Missa In duplicibus minoribus (I)
!!!OMD: Credo
!!!OTL: Qui cum Patre
**kern	**kern	**kern	**kern
*Ibass	*Itenor	*Itenor	*Icalto
!Bassus	!Tenor 2	!Tenor 1	!Altus
*clefF4	*clefGv2	*clefGv2	*clefG2
*k[]	*k[]	*k[]	*k[]
*E:phr	*E:phr	*E:phr	*E:phr
*M4/2	*M4/2	*M4/2	*M4/2
=134	=134	=134	=134
1E	0r	1r	0r
1D	.	1A	.
=135	=135	=135	=135
1E	0r	1G	1e
2F#	.	2A	1d
2G	.	2B	.
=136	=136	=136	=136
2E	0r	2G	2e
2D	.	2A	2f
4G	.	2B	2d
4F	.	.	.
4E	.	[2c	[2e
4D	.	.	.
=137	=137	=137	=137
2.C	1r	4c]	2e]
.	.	4B	.
.	.	1A	2c
4D	.	.	.
1E	1e	.	1B
.	.	2G	.
=138	=138	=138	=138
0r	2A	4c	1e
.	.	4B	.
.	1e	4A	.
.	.	4G	.
.	.	4F	2A
.	.	4E	.
.	2d	2F	[2a
=139	=139	=139	=139
0r	2c	1E	2a]
.	2B	.	2g
.	4A	1r	2f
.	4B	.	.
.	4c	.	2e
.	4A	.	.
=140	=140	=140	=140
1r	4B	0r	4d
.	4A	.	4c
.	2.A	.	4c
.	.	.	8B
.	.	.	8A
2r	.	.	1B
.	4G#	.	.
2E	4G#	.	.
.	8A	.	.
.	8B	.	.
=141	=141	=141	=141
2AA	1c	1A	1r
1A	.	.	.
.	1B	1E	1e
2G	.	.	.
=142	=142	=142	=142
1.F	1c	2r	1A
.	.	1A	.
.	2A	.	1c
2E	2c	2G	.
=143	=143	=143	=143
2D	2B	2F	1d
2C	1A	2E	.
1BB	.	1D	1d
.	2G#	.	.
=144	=144	=144	=144
1AA	2A	2E	1c#
.	2E	2A	.
1r	2F	2A	2r
.	2E	2G	2e
=145	=145	=145	=145
0r	2D	4A	2f
.	.	4B	.
.	2C	4c	2e
.	.	4A	.
.	2G	2B	2d
.	2A	[2c	2c
=146	=146	=146	=146
0r	1G	2c]	1d
.	.	2B	.
.	2r	2.c	[1e
.	[2A	.	.
.	.	4B	.
=147	=147	=147	=147
2r	2A]	2A	1e]
1E	2B	2G	.
.	2c	1r	1r
2F	2A	.	.
=148	=148	=148	=148
2G	2d	0r	2r
2E	4c	.	1e
.	4B	.	.
1A	2c	.	.
.	2c	.	2f
=149	=149	=149	=149
2G	2B	1r	2g
2A	2.e	.	2e
1F	.	1A	1a
.	8d	.	.
.	8c	.	.
.	2d	.	.
=150	=150	=150	=150
2E	1e	2B	2g
2A	.	2c	2a
1D	1r	2A	1f
.	.	[2d	.
=151	=151	=151	=151
1r	1.A	2d]	2e
.	.	4c	2e
.	.	4B	.
2r	.	2c	2f
[2E	2B	[2e	2g
=152	=152	=152	=152
2E]	1c	2e]	2e
2F	.	2A	2.a
2G	2B	2d	.
.	.	.	4g
2E	[2e	4c	2g
.	.	4B	.
=153	=153	=153	=153
1A	2e]	2.c	2e
.	2c	.	1f
.	.	4A	.
2G	2d	2B	.
2A	[2c	2c	[2e
=154	=154	=154	=154
0F	4c]	0A	2e]
.	4B	.	.
.	4A	.	4d
.	4G	.	4c
.	1A	.	1d
=155	=155	=155	=155
[0E	[0B	[0G#	[0e
=156	=156	=156	=156
0E]	0B]	0G#]	0e]
*-	*-	*-	*-
!!!CDT: 1525/^1526/-1594/2/2
!!!OCY: Italia
!!!AGN: Mass (Paraphrase)
!!!AST: renaissance, vocal
!!!ASW: Gregorian Mass
!!!PWK: Masses, Book Mantuan I
!!!RNB: Cadence finals: A
!!!YOR: Le Opere Complete, v. 18, p. 42
!!!YOO: Rome, Italy: Fratelli Scalera
!!!END: 1992//
!!!EED: John Miller
!!!YEC: Copyright 2000, John Miller
!!!YEN: United States of America
!!!YEM: Rights to all derivative electronic formats reserved.
!!!YEM: Refer to licensing agreement for further details.
!!!YEM: This file must be accompanied by the licensing agreement.
!!!YEM: A copy of the licensing agreement may be found at http://www.music-cog.ohio-state.edu/HumdrumDatabases/Palestrina/license.txt
!!!EMD: converted to Humdrum by Bret Aarden
